src/assets/24px/data-24px.svg

<?xml version="1.0" encoding="utf-8"?>
<!-- Generator: Adobe Illustrator 24.1.1, SVG Export Plug-In . SVG Version: 6.00 Build 0)  -->
<svg version="1.1" id="Layer_1" xmlns="http://www.w3.org/2000/svg" xmlns:xlink="http://www.w3.org/1999/xlink" x="0px" y="0px"
	 viewBox="0 0 24 24" style="enable-background:new 0 0 24 24;" xml:space="preserve">
<g id="Layer_1-2">
	<path d="M23,7c0.6,0,1-0.4,1-1V1c0-0.6-0.4-1-1-1H1C0.4,0,0,0.4,0,1v5c0,0.6,0.4,1,1,1h1v2H1c-0.6,0-1,0.4-1,1v4c0,0.6,0.4,1,1,1h1
		v2H1c-0.6,0-1,0.4-1,1v5c0,0.6,0.4,1,1,1h22c0.6,0,1-0.4,1-1v-5c0-0.6-0.4-1-1-1h-1v-2h1c0.6,0,1-0.4,1-1v-4c0-0.6-0.4-1-1-1h-1V7
		H23z M2,2h20v3H2V2z M22,22H2v-3h20V22z M20,17H4v-2h16V17z M22,13H2v-2h20V13z M20,9H4V7h16V9z"/>
</g>
</svg>

<svg xmlns="http://www.w3.org/2000/svg" viewBox="0 0 24 24"><g id="Layer_2" data-name="Layer 2"><g id="Layer_1-2" data-name="Layer 1"><path d="M23,7a1,1,0,0,0,1-1V1a1,1,0,0,0-1-1H1A1,1,0,0,0,0,1V6A1,1,0,0,0,1,7H2V9H1a1,1,0,0,0-1,1v4a1,1,0,0,0,1,1H2v2H1a1,1,0,0,0-1,1v5a1,1,0,0,0,1,1H23a1,1,0,0,0,1-1V18a1,1,0,0,0-1-1H22V15h1a1,1,0,0,0,1-1V10a1,1,0,0,0-1-1H22V7ZM2,2H22V5H2ZM22,22H2V19H22Zm-2-5H4V15H20Zm2-4H2V11H22ZM20,9H4V7H20Z"/></g></g></svg>
